src/renderer/assets/svg/icon-swap.svg

<svg width="24" height="24" viewBox="0 0 24 24" fill="currentColor" xmlns="http://www.w3.org/2000/svg">
<path d="M5.9225 12.1494L3.1425 14.9394C2.9525 15.1394 2.9525 15.4494 3.1425 15.6494L5.9225 18.4394C6.2325 18.7594 6.7725 18.5294 6.7725 18.0894V16.2894H12.7825C13.3325 16.2894 13.7825 15.8394 13.7825 15.2894C13.7825 14.7394 13.3325 14.2894 12.7825 14.2894H6.7725V12.4994C6.7725 12.0494 6.2325 11.8294 5.9225 12.1494ZM20.4325 8.93939L17.6525 6.14939C17.3425 5.82939 16.8025 6.05939 16.8025 6.49939V8.28939H10.7825C10.2325 8.28939 9.7825 8.73939 9.7825 9.28939C9.7825 9.83939 10.2325 10.2894 10.7825 10.2894H16.7925V12.0794C16.7925 12.5294 17.3325 12.7494 17.6425 12.4294L20.4225 9.63939C20.6225 9.44939 20.6225 9.12939 20.4325 8.93939Z" fill="currentColor"/>
</svg>

<svg xmlns="http://www.w3.org/2000/svg" width="24" height="24" fill="currentColor" viewBox="0 0 24 24"><path d="m5.923 12.15-2.78 2.79c-.19.2-.19.51 0 .71l2.78 2.79c.31.32.85.09.85-.35v-1.8h6.01c.55 0 1-.45 1-1s-.45-1-1-1h-6.01V12.5c0-.45-.54-.67-.85-.35m14.51-3.21-2.78-2.79c-.31-.32-.85-.09-.85.35v1.79h-6.02c-.55 0-1 .45-1 1s.45 1 1 1h6.01v1.79c0 .45.54.67.85.35l2.78-2.79c.2-.19.2-.51.01-.7"/></svg>
